X: 10178
T: Dinny Delaney's
R: jig
M: 6/8
K: Gmajor
D|:DEG GBd|edB deg|age dBG|ABc BcA|
G3 GBd|edB deg|age deg|1 aba g2D:|2 aba g2a||
bag age|ged g2e|dBA GBd|edB AGE|
DEG GBd|edB deg|age deg|aba g2a:|

